public/assets/icon_cart.svg

<svg width="23" height="23" viewBox="0 0 23 23" fill="none" xmlns="http://www.w3.org/2000/svg">
<path d="M22.9042 4.02501C22.8084 3.92919 22.7125 3.83333 22.5209 3.83333H4.3125L3.83332 1.34169C3.83332 1.15001 3.54582 0.958374 3.35414 0.958374H0.479137C0.191682 0.958329 0 1.15001 0 1.43751C0 1.72501 0.191682 1.91669 0.479182 1.91669H2.97086L5.27086 13.6084C5.55836 15.1417 6.99586 16.2917 8.52918 16.2917H19.55C19.8375 16.2917 20.0292 16.1 20.0292 15.8125C20.0292 15.525 19.8375 15.3333 19.55 15.3333H8.625C7.85832 15.3333 7.09168 14.95 6.70832 14.2792L20.7 12.3625C20.8917 12.3625 21.0833 12.1708 21.0833 11.9792L23 4.31251C23 4.31251 23 4.12083 22.9042 4.02501ZM20.2208 11.5L6.22914 13.3208L4.50414 4.69583H21.85L20.2208 11.5Z" fill="#181818"/>
<path d="M8.14582 17.25C6.80418 17.25 5.75 18.3042 5.75 19.6458C5.75 20.9875 6.80418 22.0416 8.14582 22.0416C9.4875 22.0416 10.5416 20.9875 10.5416 19.6458C10.5417 18.3042 9.4875 17.25 8.14582 17.25ZM8.14582 21.0833C7.37914 21.0833 6.70832 20.4125 6.70832 19.6458C6.70832 18.8792 7.37914 18.2083 8.14582 18.2083C8.9125 18.2083 9.58332 18.8792 9.58332 19.6458C9.58332 20.4125 8.9125 21.0833 8.14582 21.0833Z" fill="#181818"/>
<path d="M17.7292 17.25C16.3875 17.25 15.3334 18.3042 15.3334 19.6458C15.3334 20.9875 16.3876 22.0416 17.7292 22.0416C19.0709 22.0416 20.125 20.9875 20.125 19.6458C20.125 18.3042 19.0708 17.25 17.7292 17.25ZM17.7292 21.0833C16.9625 21.0833 16.2917 20.4125 16.2917 19.6458C16.2917 18.8792 16.9625 18.2083 17.7292 18.2083C18.4959 18.2083 19.1667 18.8792 19.1667 19.6458C19.1667 20.4125 18.4958 21.0833 17.7292 21.0833Z" fill="#181818"/>
</svg>

<svg width="23" height="23" fill="none" xmlns="http://www.w3.org/2000/svg"><path d="M22.904 4.025c-.096-.096-.192-.192-.383-.192H4.312l-.479-2.491c0-.192-.287-.384-.479-.384H.48C.192.958 0 1.15 0 1.438c0 .287.192.479.48.479h2.49l2.3 11.691c.288 1.534 1.726 2.684 3.26 2.684h11.02c.287 0 .48-.192.48-.48 0-.287-.193-.479-.48-.479H8.625c-.767 0-1.533-.383-1.917-1.054L20.7 12.363a.412.412 0 00.383-.384L23 4.313s0-.192-.096-.288zM20.221 11.5L6.229 13.32 4.504 4.697H21.85L20.22 11.5zM8.146 17.25a2.373 2.373 0 00-2.396 2.396 2.373 2.373 0 002.396 2.396 2.372 2.372 0 002.396-2.396 2.372 2.372 0 00-2.396-2.396zm0 3.833c-.767 0-1.438-.67-1.438-1.437s.671-1.438 1.438-1.438c.766 0 1.437.671 1.437 1.438 0 .767-.67 1.437-1.437 1.437zM17.73 17.25a2.373 2.373 0 00-2.397 2.396 2.373 2.373 0 002.396 2.396 2.372 2.372 0 002.396-2.396 2.373 2.373 0 00-2.396-2.396zm0 3.833c-.768 0-1.438-.67-1.438-1.437s.67-1.438 1.437-1.438 1.438.671 1.438 1.438c0 .767-.671 1.437-1.438 1.437z" fill="#181818"/></svg>
